X:1
T:The World Itself Keeps Easter Day
T:The World Itself Keeps Easter Day
T:Theodore Emanuel Schmauk, 1907
T:John Mason Neale, 1853
T:Public Domain Courtesy of the Cyber Hymnal™
C:Theodore Emanuel Schmauk, 1907
Z:Public Domain
Z:Courtesy of the Cyber Hymnal™
%%score ( 1 2 ) ( 3 4 )
L:1/8
Q:1/4=110
M:4/4
K:Eb
V:1 treble 
V:2 treble 
V:3 bass 
V:4 bass 
V:1
 B,2 | [B,E]3 [B,D] [B,E]2 [DF]2 | [EG]2 [Ec]2 [EB]2 [EG]2 | [EB]3 [EA] [EG]2 E2 | %4
w: 1.~The|world it- self keeps|Eas- ter Day, And|Eas- ter larks are|
w: 2.~There|stood three Ma- rys|by the tomb, On|Eas- ter morn- ing|
w: 3.~But|ear- lier still the|an- gel sped, The|news of com- fort|
w: 4.~The|world it- self keeps|Eas- ter day, And|Eas- ter larks are|
 ([EG]2 [DF]2) [B,E]2 B,2 | [B,E]3 [B,D] [B,E]2 [DF]2 | [EG]2 [Ec]2 [EB]2 [=EB]2 | %7
w: sing- * ing, And|Eas- ter flow’rs are|bloom- ing gay, And|
w: ear- * ly, When|day had scarce- ly|chased the gloom, And|
w: giv- * ing; And|“Why,” he said, “a-|mong the dead, Thus|
w: sing- * ing, And|Eas- ter flow’rs are|bloom- ing day, And|
 [=EB]3 [E=A] [FB]2 [DF]2 | ([Fd]2 [Ec]2) [DB]2 [DB]2 | [EB]3 [EG] [DF]2 [_DE]2 | %10
w: Eas- ter buds are|spring- * ing. The|Lord of all things|
w: dew was white and|pearl- * y. With|lov- ing, but with|
w: seek ye for the|liv- * ing? Go,|tell them all, and|
w: Eas- ter buds are|spring- * ing. The|Lord hath ris’n, as|
 [CE]2 [Ec]2 [Ec]2 [=Ec]2 | [Ec]3 [E=A] [EG]2 [EF]2 | [DF]2 [Fd]2 [Fd]2 ||"^Refrain" [Ee]>[Ed] | %14
w: lives a- new, And|all His works are|ris- ing, too.||
w: err- ing mind, They|come, the Prince of|life to find.||
w: make them blest; Tell|Pe- ter first, and|then the rest.”||
w: all things tell; Good|Chris- tians, see ye|rise as well.||
 [Ec]4 [EB]2 [=Ec]>[GB] | [FA]4 [=EG]2 [CA]>[DF] | B8 | [B,E]6 |] %18
w: ||||
w: ||||
w: ||||
w: ||||
V:2
 B,2 | x8 | x8 | x6 E2 | x6 B,2 | x8 | x8 | x8 | x8 | x8 | x8 | x8 | x6 || x2 | x8 | x8 | %16
 (E2 D2 C2 D2) | x6 |] %18
V:3
 [E,G,]2 | [E,G,]3 [E,F,] [E,G,]2 [B,,B,]2 | [E,B,]2 A,2 [G,B,]2 [E,B,]2 | %3
w: ||* Al- * *|
 [G,,B,]3 [A,,C] [B,,B,]2 [C,G,]2 | ([F,,=A,]2 [B,,_A,]2) [E,,E,G,]2 [E,G,]2 | %5
w: ||
 [E,G,]3 [E,F,] [E,G,]2 [B,,B,]2 | [E,B,]2 A,2 [G,B,]2 [G,C]2 | [_G,_D]3 [G,D] [F,=D]2 [F,B,]2 | %8
w: |* le- * *||
 (B,2 =A,2) [B,,B,]2 [_A,B,]2 | [G,B,]3 [E,B,] [F,B,]2 [G,B,]2 | A,2 [A,C]2 [A,C]2 [G,B,]2 | %11
w: ||lu- * * *|
 [F,=A,]3 [F,C] [G,C]2 [A,C]2 | B,2 [B,D]2 [B,D]2 || [G,B,]>[G,B,] | A,4 [G,B,]2 [C,G,]>[=E,C] | %15
w: |ia! * *|Al- le-|lu- ia! Al- le-|
 [F,C]4 [C,C]2 [F,,F,]>[A,,F,] | (G,2 F,2 A,4) | [A,,E,G,]6 |] %18
w: lu- ia! * *|||
V:4
 x2 | x8 | x2 A,2 x4 | x8 | x8 | x8 | x2 A,2 x4 | x8 | F,4 x4 | x8 | A,2 x6 | x8 | B,2 x4 || x2 | %14
 A,4 x4 | x8 | B,,8 | x6 |] %18

